ERK
CUT[SEI NUR STILL HAST LANG GESCHWIEGEN]
REG[Europa, Mitteleuropa, Deutschland, Thueringen]
TRD[]
FKT[]
SIG[E0697A]
KEY[E0697A  08  D 4/4]
MEL[1234  5_.567+16  6554
    3_.4  5_.56543  3_2_
    1234  5_.567+16  6554
    3_.4  5_.56543  3_2_
    5_.3  4_.2353_  2_0_
    3234  543_
    2_33  46543_2_  1_0_
    5_.3  4_.2353_  2_0_
    3234  543_
    2_33  46543_2_  1_0_ //]
BEM[]
MEL_SEM[2 2 1 2 0 2 2 1 -3 0 -2 0 -2 -1 1 2 0 2 -2 -2 -1 0 -2 -2 2 2 1 2 0 2 2 1 -3 0 -2 0 -2 -1 1 2 0 2 -2 -2 -1 0 -2 5 -3 1 -3 2 3 -3 -2 2 -2 2 1 2 -2 -1 -2 2 0 1 4 -2 -2 -1 -2 -2 7 -3 1 -3 2 3 -3 -2 2 -2 2 1 2 -2 -1 -2 2 0 1 4 -2 -2 -1 -2 -2]
MEL_RAW[1234  5567+16  6554
    34  556543  32
    1234  5567+16  6554
    34  556543  32
    53  42353  20
    3234  543
    233  465432  10
    53  42353  20
    3234  543
    233  465432  10]
NO_REP[1234567+1654
    34565432
    1234567+1654
    34565432
    534235320
    3234543
    2346543210
    534235320
    3234543
    2346543210]
RTM[xxxx  x_.xxxxx  xxxx
    x_.x  x_.xxxxx  x_x_
    xxxx  x_.xxxxx  xxxx
    x_.x  x_.xxxxx  x_x_
    x_.x  x_.xxxx_  x_x_
    xxxx  xxx_
    x_xx  xxxxx_x_  x_x_
    x_.x  x_.xxxx_  x_x_
    xxxx  xxx_
    x_xx  xxxxx_x_  x_x_]
SCL_DEG[1234567+1]
SCL_SEM[2 2 1 2 2 2 1]

